X:1
T:Title
%%score { 1 | ( 2 3 ) }
L:1/8
M:6/8
K:G
V:1 treble nm="Grand Piano"
V:2 treble 
V:3 treble 
V:1
 z3 z2[Q:1/4=84] D | BBB _B=BF | A3 G2 F | E^DE [EG]2 E | D3- D2 B | [Fd][Fd][Fd] [FA][GB][Ac] | %6
 [Ac]3 B2 B | BAE B2 A | [FA]3- [FA]2 [Fd] | [Fd][Fc][FA] EBA | A3 G2 B | %11
 [^DB][DA][DF] [FB]2 [FA] | [EG]3- [EG]2 [=FG] | [EG][EG][EG] [^DG]2 [DA] | B3 d2 D | %15
 E[EG][^Dc] [=DB]2 [CA] |[M:5/8] [B,G]-[B,G]- [B,G]3 |[M:1/8] B | %18
[M:3/4] [Ec][EG] [EG] [^DG]2 [DA] | B4- BB | [^CB]2 [CA] [CE]2 [CB] | [DA]4- [DA][FA] | %22
 B2 d B2 G/G/ | GA B [Ec]2 E | D2 B B2 A |[M:5/8] [B,G]-[B,G]- [B,G]3 |] %26
V:2
 z3 z2 [G,B,] | [G,DG][G,DG][G,DG] [G,^CG][G,DG][K:bass][G,CD] | [G,CD]3 [G,B,D]2 [G,B,D] | %3
 CC[C,G,C] [C,C]2 [C,G,C] | [G,B,]3- [G,B,]2 [G,DG] | [D,D][D,D][D,D] [D,D][D,D][D,D] | %6
 [F,D]3[K:treble] [G,DG]2 [G,DG] | [A,^CE][A,CE][A,C] [A,CG]2 [A,CG] | [D,D]3- [D,D]2 [D,A,] | %9
 [D,A,][D,A,][D,A,] [D,F,C][D,F,C][D,F,C] | [G,C]3 [G,B,]2 [G,D] | %11
 [B,,F,][B,,F,][B,,B,] [^D,B,]2 [D,B,] | [E,B,]3- [E,B,]2 [D,B,] | [C,C][C,C][C,C] [C,C]2 [C,C] | %14
 [G,D]3 [G,B,G]2[K:bass] [G,B,] | [C,G,C][C,G,][C,G,] [D,G,]2 [D,F,] | %16
[M:5/8] [G,,G,]-[G,,G,]- [G,,G,]3 |[M:1/8] [G,=F] |[M:3/4] [C,G,][C,G,] [C,G,] [C,G,]2 [C,G,] | %19
 [G,D]4- [G,D][G,D] | [A,,G,]2 [A,,G,] [A,,G,]2 [A,,G,] | [D,F,]4- [D,F,][D,D] | %22
 [G,DG]2 [G,B,G] [G,DG]2 [G,B,]/[G,B,]/ | [G,B,][G,CF] [G,D=F][K:bass] [C,C]2 [^C,G,_B,] | %24
 [D,G,B,]2 [D,G,D] [D,F,D]2 [D,F,C] |[M:5/8] [G,,G,]-[G,,G,]- [G,,G,]3 |] %26
V:3
 x6 | x5[K:bass] x | x6 | .[C,G,]3 z3 | x6 | x6 | x3[K:treble] x3 | x6 | x6 | x6 | x6 | x6 | x6 | %13
 x6 | x5[K:bass] x | x6 |[M:5/8] x5 |[M:1/8] x |[M:3/4] x6 | x6 | x6 | x6 | x6 | x3[K:bass] x3 | %24
 x6 |[M:5/8] x5 |] %26

